X:125
T:Under Paris Skies
M:3/4
L:1/8
R:Waltz
K:Fm
"Fm"C2F2G2|A4B2|c2B2A2|G2F2E2|"Bbm7"D6|c6|"Bbm6"(B6|"Bbm7"B4)z2|
"C7"C2=E2F2|G4A2|B2d2c2|"@"B2A2G2|"Fm"(F6|"Bbm"F6|"Fm"F6)|1z6:|2G2A2G2||
"Bbm7"F6|F6|F6|"Eb7"G2A2G2|"Ab6"F6|F6|F6|G2A2G2|
"Db"F4G2|A4B2|"Bbm6"c2d2e2|d2c2B2|"C"(c6|"C7"c6|"Fm"c6|"C DC al Coda"c2)
z4||!
"@ C7"B2=A2G2|"F"(=A6|=A6|=A2)z2c2|c2=A2F2||
K:FMaj|
"FM7"(E6|E6|E2)z2c2|c2A2F2|"Cm7"(_E6|_E6|"F7"_E2)z2c2|c2A2F2|
"Bb"(D6|D6|D2)z2B2|B2F2D2|"Bbm"(_D6|_D6|"Bbm6"_D6)|F2_E2_D2|
"F"C4C2|"A7"^C4C2|"Dm"D4D2|"A7"E4E2|"Dm"F4F2|"C7"G4G2|"F"A4z2|"Gm7"B2A2B
2|
"F"(c6|c6|c2)z2c2|"G7"d2=B2G2|"C"(c6|"C7"c6|"Fm"c6|"C7 al Capo"c6)||
